X:122
T: SAGT MIR AN WAS SCHMUNZELT IHR
N: B0612
O: Europa, Mitteleuropa, Deutschland
R: Staende -, Bauern - Lied, Tanz
M: 4/4
L: 1/8
K: D
 | d2d2c2c2 | B2B2A4 |
B2A2B2A2 | G2F2E4 |
G2G2E2E2 | F2F2E2E2 |
F2F2E2E2 | F2F2E2E2 |
F2E2F2G2 | A4d2z2 |
GFEDA2A2 | D4z4

@@@ Tune index: 2340
